X: 732
T: Lee Highway Blues
B: jims roots
M:4/4
L:1/8
Q: 1/4=100
K:D
V:1 
%N:ABC'd by Jim Kendrick
"D"D2 DF EDFE | DEFD ED B,2 | D2DF EDB,A, | "A"A,CDE "D"D2D2-|
D2 DF EDFE | DEFD ED B,2 | D2 DF EDB,A, |[1 "A"A,B,DE "D"D2D2:|[2 "A"A,B,DE "D"D2a2||
"D"abaf edBA | FA2 Bd2 ef- |fefe dBAB | ef2 ef2 a2- |
abaf edBA | FA2 Bd2 ef- | fefd dBAB | "G"g3a g2b2- |
bgge g2 a2 | g2 g4 b- | bgge g3a | g2 g4 f2- | "D"fafe d3d | d8||
% abcbook-tune_id 6298c25d905cda6d4f957c96


% abcbook-boost 0
% abcbook-tablature 
% abcbook-transpose 
% abcbook-lastupdated 1654178399707
% abcbook-soundfonts 
% abcbook-repeats 1


